icons/git-branch-24.svg

<svg width="24" height="24" viewBox="0 0 24 24" xmlns="http://www.w3.org/2000/svg">
  <path fill-rule="evenodd" clip-rule="evenodd" d="M5.75 21C4.7835 21 4 20.2165 4 19.25C4 18.2835 4.7835 17.5 5.75 17.5C6.7165 17.5 7.5 18.2835 7.5 19.25C7.5 20.2165 6.7165 21 5.75 21ZM2.5 19.25C2.5 21.0449 3.95507 22.5 5.75 22.5C7.54493 22.5 9 21.0449 9 19.25C9 17.4551 7.54493 16 5.75 16C3.95507 16 2.5 17.4551 2.5 19.25Z"/>
  <path fill-rule="evenodd" clip-rule="evenodd" d="M5.75 6.5C4.7835 6.5 4 5.7165 4 4.75C4 3.7835 4.7835 3 5.75 3C6.7165 3 7.5 3.7835 7.5 4.75C7.5 5.7165 6.7165 6.5 5.75 6.5ZM2.5 4.75C2.5 6.54493 3.95507 8 5.75 8C7.54493 8 9 6.54493 9 4.75C9 2.95507 7.54493 1.5 5.75 1.5C3.95507 1.5 2.5 2.95507 2.5 4.75Z"/>
  <path fill-rule="evenodd" clip-rule="evenodd" d="M18.25 6.5C17.2835 6.5 16.5 5.7165 16.5 4.75C16.5 3.7835 17.2835 3 18.25 3C19.2165 3 20 3.7835 20 4.75C20 5.7165 19.2165 6.5 18.25 6.5ZM15 4.75C15 6.54493 16.4551 8 18.25 8C20.0449 8 21.5 6.54493 21.5 4.75C21.5 2.95507 20.0449 1.5 18.25 1.5C16.4551 1.5 15 2.95507 15 4.75Z"/>
  <path fill-rule="evenodd" clip-rule="evenodd" d="M5.75 16.75C6.16421 16.75 6.5 16.4142 6.5 16L6.5 8C6.5 7.58579 6.16421 7.25 5.75 7.25C5.33579 7.25 5 7.58579 5 8L5 16C5 16.4142 5.33579 16.75 5.75 16.75Z"/>
  <path fill-rule="evenodd" clip-rule="evenodd" d="M17.5 8.75V7.75H19V8.75C19 10.8211 17.3211 12.5 15.25 12.5H8.25C7.2835 12.5 6.5 13.2835 6.5 14.25H5C5 12.4551 6.45507 11 8.25 11H15.25C16.4926 11 17.5 9.99264 17.5 8.75Z"/>
</svg>

<svg xmlns="http://www.w3.org/2000/svg" width="24" height="24" viewBox="0 0 24 24"><path fill-rule="evenodd" d="M5.75 21a1.75 1.75 0 110-3.5 1.75 1.75 0 010 3.5zM2.5 19.25a3.25 3.25 0 106.5 0 3.25 3.25 0 00-6.5 0zM5.75 6.5a1.75 1.75 0 110-3.5 1.75 1.75 0 010 3.5zM2.5 4.75a3.25 3.25 0 106.5 0 3.25 3.25 0 00-6.5 0zM18.25 6.5a1.75 1.75 0 110-3.5 1.75 1.75 0 010 3.5zM15 4.75a3.25 3.25 0 106.5 0 3.25 3.25 0 00-6.5 0z"/><path fill-rule="evenodd" d="M5.75 16.75A.75.75 0 006.5 16V8A.75.75 0 005 8v8c0 .414.336.75.75.75z"/><path fill-rule="evenodd" d="M17.5 8.75v-1H19v1a3.75 3.75 0 01-3.75 3.75h-7a1.75 1.75 0 00-1.75 1.75H5A3.25 3.25 0 018.25 11h7a2.25 2.25 0 002.25-2.25z"/></svg>
